X:12
T:Crosses of Annagh, The
T:Bobby Casey's
R:reel
Z:Transcribed by Dave Marshall
M:C|
K:D
|:DFA ~B3 AB|d2fd edBA|DFA ~B3 AB|d2gf edBA|
DFA ~B3 AB|d2fd efge|~f2af gefe|defd edBA:|
|:d2df eA (3AAA|defg afge|defd e~B3|g~B3 dBAB|
d2fd efge|fedf edBd|ABdf bafb|afeg fddA:|
